images/envelope.svg

<?xml version="1.0" encoding="UTF-8" standalone="no"?>
<svg width="201px" height="205px" viewBox="0 0 201 205" version="1.1" xmlns="http://www.w3.org/2000/svg" xmlns:xlink="http://www.w3.org/1999/xlink">
    <!-- Generator: Sketch 41 (35326) - http://www.bohemiancoding.com/sketch -->
    <title>Combined Shape</title>
    <desc>Created with Sketch.</desc>
    <defs></defs>
    <g id="Page-1" stroke="none" stroke-width="1" fill="none" fill-rule="evenodd">
        <g id="Group-2" fill="#D7B740">
            <path d="M100.652577,204.955824 C155.881052,204.955824 200.652577,159.0749 200.652577,102.477912 C200.652577,45.8809239 155.881052,0 100.652577,0 C45.4241025,0 0.652577499,45.8809239 0.652577499,102.477912 C0.652577499,159.0749 45.4241025,204.955824 100.652577,204.955824 Z M155.901446,58.0390898 L45.1548399,58.0390898 C42.6661522,58.0390898 40.4263332,59.0543508 38.6842517,60.5772424 L100.652577,114.639893 L162.372035,60.5772424 C160.629953,59.0543508 158.390134,58.0390898 155.901446,58.0390898 Z M120.56208,106.010174 L165.35846,144.590094 L165.35846,66.4149934 L120.56208,106.010174 Z M100.652577,124.031058 L84.7249757,109.817403 L38.9331205,149.920214 C40.6752019,151.443106 42.9150209,152.458367 45.4037087,152.458367 L156.150315,152.458367 C158.639003,152.458367 160.878822,151.443106 162.620903,149.920214 L116.829048,109.817403 L100.652577,124.031058 Z M35.9466951,66.4149934 L35.9466951,144.590094 L80.7430752,106.010174 L35.9466951,66.4149934 Z" id="Combined-Shape"></path>
        </g>
    </g>
</svg>

<svg width="201" height="205" viewBox="0 0 201 205" xmlns="http://www.w3.org/2000/svg"><title>Combined Shape</title><path d="M100.653 204.956c55.228 0 100-45.881 100-102.478C200.653 45.88 155.88 0 100.653 0c-55.229 0-100 45.88-100 102.478 0 56.597 44.771 102.478 100 102.478zM155.9 58.039H45.155c-2.489 0-4.729 1.015-6.47 2.538l61.968 54.063 61.719-54.063c-1.742-1.523-3.982-2.538-6.47-2.538zm-35.339 47.971l44.796 38.58V66.415l-44.796 39.595zm-19.91 18.021l-15.927-14.214-45.792 40.103c1.742 1.523 3.982 2.538 6.47 2.538H156.15c2.489 0 4.729-1.015 6.47-2.538l-45.791-40.103-16.176 14.214zM35.948 66.415v78.175l44.796-38.58-44.796-39.595z" fill="#D7B740" fill-rule="evenodd"/></svg>
